Obsidian/actions/16s/kstars_grid.svg

<svg height="16" viewBox="0 0 16 16" width="16" xmlns="http://www.w3.org/2000/svg"><path d="m3.5253906 0 2.9023438 1.2792969c-.48215.9291-1.0938813 1.7762562-1.8007813 2.5351562l-3.80859372-3.79492185h-.80664063v.94921875l3.72265625 3.7050781c-.72083.6239-1.5138 1.16285-2.375 1.59375l-.79101562-1.7851562-.5390625-1.2558594-.01367188 3.0234375.22460938.5058594c-.08146201.03-.15791438.0706094-.24023438.0996094v1.3085937c.25343-.079.49383437-.1853969.74023438-.2792969l1.93554682 4.3652344c-.86159.3347-1.7534812.614753-2.6757812.814453v1.269531c1.0992-.2218 2.1576344-.551431 3.1777344-.957031l1.1347656 2.5625h1.3320312l-1.3496093-3.046875c1.6841-.8013 3.2270906-1.847397 4.5878906-3.0917968l3.4238285 3.4082028c-1.1183 1.0409-2.3320191 1.980916-3.6367191 2.791016h2.2207031c.80623-.59 1.564769-1.238722 2.292969-1.919922l1.867187 1.859375.888672.009766.005859-.855469-1.884765-1.876953c.6857-.708 1.341053-1.445569 1.939453-2.230469v-2.1484374c-.82306 1.2604004-1.7697 2.4306124-2.8125 3.5078124l-3.4199219-3.408203c1.3329999-1.3905 2.4535939-2.9837219 3.3085939-4.7324219l2.859375 1.2597657.003906-1.3457032-2.367187-1.0253906c.40526-.9881.738503-2.0121719.970703-3.07617187h-1.269531c-.208641.89159999-.490339 1.75293747-.830079 2.58593747l-4.4042965-1.9082031c.09049-.2264.1957875-.44523438.2734375-.67773437h-1.3164062c-.0245101.066-.0583144.12630624-.0839844.19140625l-.4804688-.20898438zm4.0292969 1.7753906 4.3925785 1.9335938c-.79178 1.6093-1.827788 3.0750218-3.0546879 4.3574218l-3.3925781-3.3808593c.81296-.867 1.5075875-1.8427563 2.0546875-2.9101563zm-2.9453125 3.7695313 3.3984375 3.3828125c-1.2533 1.1377996-2.6693438 2.0967846-4.2148437 2.8339846l-1.9335938-4.3671878c.99973-.4962 1.9198-1.1200093 2.75-1.8496093z" fill="#bebebe"/></svg>

<svg xmlns="http://www.w3.org/2000/svg" width="16" height="16" viewBox="0 0 16 16">
 <defs>
  <style id="current-color-scheme" type="text/css">
   .ColorScheme-Text { color:#bebebe; } .ColorScheme-Highlight { color:#4285f4; }
  </style>
 </defs>
 <path style="fill:currentColor" class="ColorScheme-Text" d="M 3.5253906 0 L 6.4277344 1.2792969 C 5.9455844 2.2083969 5.3338531 3.0555531 4.6269531 3.8144531 L 0.81835938 0.01953125 L 0.01171875 0.01953125 L 0.01171875 0.96875 L 3.734375 4.6738281 C 3.013545 5.2977281 2.220575 5.8366781 1.359375 6.2675781 L 0.56835938 4.4824219 L 0.029296875 3.2265625 L 0.015625 6.25 L 0.24023438 6.7558594 C 0.15877237 6.7858594 0.08232 6.8264688 0 6.8554688 L 0 8.1640625 C 0.25343 8.0850625 0.49383437 7.9786656 0.74023438 7.8847656 L 2.6757812 12.25 C 1.8141912 12.5847 0.9223 12.864753 0 13.064453 L 0 14.333984 C 1.0992 14.112184 2.1576344 13.782553 3.1777344 13.376953 L 4.3125 15.939453 L 5.6445312 15.939453 L 4.2949219 12.892578 C 5.9790219 12.091278 7.5220125 11.045181 8.8828125 9.8007812 L 12.306641 13.208984 C 11.188341 14.249884 9.9746219 15.1899 8.6699219 16 L 10.890625 16 C 11.696855 15.41 12.455394 14.761278 13.183594 14.080078 L 15.050781 15.939453 L 15.939453 15.949219 L 15.945312 15.09375 L 14.060547 13.216797 C 14.746247 12.508797 15.4016 11.771228 16 10.986328 L 16 8.8378906 C 15.17694 10.098291 14.2303 11.268503 13.1875 12.345703 L 9.7675781 8.9375 C 11.100578 7.547 12.221172 5.9537781 13.076172 4.2050781 L 15.935547 5.4648438 L 15.939453 4.1191406 L 13.572266 3.09375 C 13.977526 2.10565 14.310769 1.0815781 14.542969 0.017578125 L 13.273438 0.017578125 C 13.064797 0.90917812 12.783099 1.7705156 12.443359 2.6035156 L 8.0390625 0.6953125 C 8.1295525 0.4689125 8.23485 0.25007812 8.3125 0.017578125 L 6.9960938 0.017578125 C 6.9715837 0.083578125 6.9377794 0.14388437 6.9121094 0.20898438 L 6.4316406 0 L 3.5253906 0 z M 7.5546875 1.7753906 L 11.947266 3.7089844 C 11.155486 5.3182844 10.119478 6.7840062 8.8925781 8.0664062 L 5.5 4.6855469 C 6.31296 3.8185469 7.0075875 2.8427906 7.5546875 1.7753906 z M 4.609375 5.5449219 L 8.0078125 8.9277344 C 6.7545125 10.065534 5.3384687 11.024519 3.7929688 11.761719 L 1.859375 7.3945312 C 2.859105 6.8983312 3.779175 6.2745219 4.609375 5.5449219 z"/>
</svg>
